icons/4_Outdated/Trello v1.svg

<svg xmlns="http://www.w3.org/2000/svg" width="1024" height="1024" fill="none">
   <g clip-path="url(#a)">
      <path fill="#728DBE" d="M512 1024c282.77 0 512-229.23 512-512S794.77 0 512 0 0 229.23 0 512s229.23 512 512 512Z"/>
      <path fill="#fff" d="M704 256H320a64.003 64.003 0 0 0-64 64v384a64 64 0 0 0 64 64h384a64 64 0 0 0 64-64V320a64.003 64.003 0 0 0-64-64ZM478.73 643.85A30.731 30.731 0 0 1 448 674.57h-94.72a30.738 30.738 0 0 1-30.72-30.72V353.28a30.727 30.727 0 0 1 30.72-30.72H448a30.727 30.727 0 0 1 30.72 30.72l.01 290.57Zm222.73-128a30.738 30.738 0 0 1-30.72 30.72H576a30.738 30.738 0 0 1-30.72-30.72V353.28A30.738 30.738 0 0 1 576 322.56h94.72a30.727 30.727 0 0 1 30.72 30.72l.02 162.57Z"/>
   </g>
   <defs>
      <clipPath id="a">
         <path fill="#fff" d="M0 0h1024v1024H0z"/>
      </clipPath>
   </defs>
</svg>

<svg width="1024" height="1024" viewBox="0 0 1024 1024" fill="none" xmlns="http://www.w3.org/2000/svg">
<g clip-path="url(#clip0_3_701)">
<path d="M512 1024C794.77 1024 1024 794.77 1024 512C1024 229.23 794.77 0 512 0C229.23 0 0 229.23 0 512C0 794.77 229.23 1024 512 1024Z" fill="#728DBE"/>
<path d="M704 256H320C303.026 256 286.748 262.743 274.745 274.745C262.743 286.748 256 303.026 256 320V704C256 720.974 262.743 737.253 274.745 749.255C286.748 761.257 303.026 768 320 768H704C720.974 768 737.253 761.257 749.255 749.255C761.257 737.253 768 720.974 768 704V320C768 303.026 761.257 286.748 749.255 274.745C737.253 262.743 720.974 256 704 256ZM478.73 643.85C478.727 651.998 475.489 659.812 469.726 665.573C463.963 671.334 456.148 674.57 448 674.57H353.28C345.134 674.565 337.324 671.326 331.564 665.566C325.804 659.806 322.565 651.996 322.56 643.85V353.28C322.563 345.133 325.8 337.321 331.561 331.561C337.321 325.8 345.133 322.563 353.28 322.56H448C456.147 322.563 463.959 325.8 469.719 331.561C475.48 337.321 478.717 345.133 478.72 353.28L478.73 643.85ZM701.46 515.85C701.455 523.996 698.216 531.806 692.456 537.566C686.697 543.326 678.886 546.565 670.74 546.57H576C567.854 546.565 560.043 543.326 554.284 537.566C548.524 531.806 545.285 523.996 545.28 515.85V353.28C545.285 345.134 548.524 337.324 554.284 331.564C560.043 325.804 567.854 322.565 576 322.56H670.72C678.867 322.563 686.679 325.8 692.439 331.561C698.2 337.321 701.437 345.133 701.44 353.28L701.46 515.85Z" fill="white"/>
</g>
<defs>
<clipPath id="clip0_3_701">
<rect width="1024" height="1024" fill="white"/>
</clipPath>
</defs>
</svg>
